X: 28334
T: Mug Of Brown Ale, The
R: jig
M: 6/8
K: Adorian
gf|:eAA fAA|~g3 age|dBA ~G3|BAG Bcd|
eAA fAA|~g3 age|def gdB|BAG A3:|
|:efg ~a3|aba age|def ~g3|gba ged|
efg ~a3|aba age|def gdB|BAG A3:|

